svg/color/cora.svg

<?xml version="1.0" encoding="UTF-8" ?>
<!DOCTYPE svg PUBLIC "-//W3C//DTD SVG 1.1//EN" "http://www.w3.org/Graphics/SVG/1.1/DTD/svg11.dtd">
<svg width="250pt" height="245pt" viewBox="0 0 250 245" version="1.1" xmlns="http://www.w3.org/2000/svg">
<g id="#ffffffff">
<path fill="#ffffff" opacity="1.00" d=" M 0.00 0.00 L 250.00 0.00 L 250.00 245.00 L 0.00 245.00 L 0.00 0.00 M 96.16 46.03 C 80.99 70.25 65.53 94.30 50.22 118.44 C 49.48 119.91 47.37 121.57 48.72 123.30 C 63.82 146.76 78.64 170.39 93.56 193.97 C 95.20 192.82 96.44 191.24 97.74 189.75 C 108.01 178.38 118.46 167.15 128.64 155.70 C 121.85 144.31 114.45 133.22 107.37 121.99 C 115.14 109.96 122.67 97.78 130.55 85.83 C 119.07 72.58 107.97 58.97 96.16 46.03 M 103.23 47.70 C 113.19 59.13 123.14 70.57 133.02 82.06 C 133.82 82.84 134.55 84.17 135.90 83.84 C 155.45 83.79 175.01 83.98 194.57 83.74 C 182.14 71.30 170.24 58.33 157.88 45.81 C 139.31 45.79 120.74 45.85 102.16 45.78 C 102.42 46.48 102.78 47.12 103.23 47.70 M 96.13 198.07 C 116.88 198.32 137.64 198.00 158.40 198.24 C 164.93 191.85 170.92 184.91 177.35 178.41 C 182.97 172.12 189.14 166.32 194.56 159.87 C 173.35 159.73 152.14 159.84 130.93 159.81 C 119.25 172.49 107.63 185.23 96.13 198.07 Z" />
</g>
<g id="#4f1013ff">
<path fill="#4f1013" opacity="1.00" d=" M 96.16 46.03 C 107.97 58.97 119.07 72.58 130.55 85.83 C 122.67 97.78 115.14 109.96 107.37 121.99 C 114.45 133.22 121.85 144.31 128.64 155.70 C 118.46 167.15 108.01 178.38 97.74 189.75 C 96.44 191.24 95.20 192.82 93.56 193.97 C 78.64 170.39 63.82 146.76 48.72 123.30 C 47.37 121.57 49.48 119.91 50.22 118.44 C 65.53 94.30 80.99 70.25 96.16 46.03 Z" />
<path fill="#4f1013" opacity="1.00" d=" M 103.23 47.70 C 102.78 47.12 102.42 46.48 102.16 45.78 C 120.74 45.85 139.31 45.79 157.88 45.81 C 170.24 58.33 182.14 71.30 194.57 83.74 C 175.01 83.98 155.45 83.79 135.90 83.84 C 134.55 84.17 133.82 82.84 133.02 82.06 C 123.14 70.57 113.19 59.13 103.23 47.70 Z" />
<path fill="#4f1013" opacity="1.00" d=" M 96.13 198.07 C 107.63 185.23 119.25 172.49 130.93 159.81 C 152.14 159.84 173.35 159.73 194.56 159.87 C 189.14 166.32 182.97 172.12 177.35 178.41 C 170.92 184.91 164.93 191.85 158.40 198.24 C 137.64 198.00 116.88 198.32 96.13 198.07 Z" />
</g>
</svg>

<?xml version="1.0" encoding="utf-8"?>
<!-- Generator: Adobe Illustrator 26.0.3, SVG Export Plug-In . SVG Version: 6.00 Build 0)  -->
<svg version="1.1" id="Layer_1" xmlns="http://www.w3.org/2000/svg" xmlns:xlink="http://www.w3.org/1999/xlink" x="0px" y="0px"
	 viewBox="0 0 250 245" style="enable-background:new 0 0 250 245;" xml:space="preserve">
<style type="text/css">
	.st0{fill:#4F1013;}
</style>
<g id="_x23_4f1013ff">
	<path class="st0" d="M96.2,46C108,59,119.1,72.6,130.6,85.8c-7.9,11.9-15.4,24.1-23.2,36.2c7.1,11.2,14.5,22.3,21.3,33.7
		c-10.2,11.4-20.6,22.7-30.9,34.1c-1.3,1.5-2.5,3.1-4.2,4.2c-14.9-23.6-29.7-47.2-44.8-70.7c-1.4-1.7,0.8-3.4,1.5-4.9
		C65.5,94.3,81,70.2,96.2,46z"/>
	<path class="st0" d="M103.2,47.7c-0.5-0.6-0.8-1.2-1.1-1.9c18.6,0.1,37.1,0,55.7,0c12.4,12.5,24.3,25.5,36.7,37.9
		c-19.6,0.2-39.1,0.1-58.7,0.1c-1.3,0.3-2.1-1-2.9-1.8C123.1,70.6,113.2,59.1,103.2,47.7z"/>
	<path class="st0" d="M96.1,198.1c11.5-12.8,23.1-25.6,34.8-38.3c21.2,0,42.4-0.1,63.6,0.1c-5.4,6.5-11.6,12.2-17.2,18.5
		c-6.4,6.5-12.4,13.4-19,19.8C137.6,198,116.9,198.3,96.1,198.1z"/>
</g>
</svg>
